images/icons/headphones.svg

<svg width="81" height="81" viewBox="0 0 81 81" fill="none" xmlns="http://www.w3.org/2000/svg">
<path d="M37.6999 54.5019C37.9828 54.7143 38.3384 54.8055 38.6884 54.7554C39.0385 54.7054 39.3544 54.5181 39.5665 54.2349L45.5666 46.225C45.7152 46.0266 45.8056 45.7908 45.8279 45.5439C45.8501 45.297 45.8032 45.0487 45.6925 44.827C45.5817 44.6052 45.4115 44.4187 45.2009 44.2884C44.9902 44.158 44.7475 44.089 44.4999 44.089H39.1665L43.5666 38.2151C43.7787 37.9318 43.8698 37.5758 43.8198 37.2253C43.7698 36.8748 43.5828 36.5585 43.2999 36.3461C43.017 36.1337 42.6614 36.0425 42.3113 36.0925C41.9613 36.1426 41.6454 36.3299 41.4332 36.6131L35.4332 44.623C35.2846 44.8213 35.1941 45.0572 35.1719 45.3041C35.1497 45.551 35.1965 45.7993 35.3073 46.021C35.418 46.2428 35.5882 46.4292 35.7989 46.5596C36.0095 46.6899 36.2522 46.759 36.4998 46.759H41.8332L37.4332 52.6329C37.3281 52.7731 37.2517 52.9327 37.2082 53.1026C37.1648 53.2724 37.1552 53.4491 37.1799 53.6227C37.2047 53.7962 37.2633 53.9632 37.3526 54.114C37.4418 54.2649 37.5598 54.3967 37.6999 54.5019Z" fill="#03BCFC"/>
<path d="M79.1664 45.424C78.8128 45.424 78.4737 45.5647 78.2236 45.815C77.9736 46.0654 77.8331 46.4049 77.8331 46.759V49.429C77.8331 50.4911 77.4117 51.5098 76.6615 52.2609C75.9114 53.012 74.894 53.4339 73.8331 53.4339H69.8331V37.4141H73.8331C74.894 37.4141 75.9114 37.8361 76.6615 38.5872C77.4117 39.3382 77.8331 40.3569 77.8331 41.4191C77.8331 41.7731 77.9736 42.1127 78.2236 42.3631C78.4737 42.6134 78.8128 42.7541 79.1664 42.7541C79.5201 42.7541 79.8592 42.6134 80.1092 42.3631C80.3593 42.1127 80.4998 41.7731 80.4998 41.4191C80.4978 39.8809 79.9663 38.3904 78.9948 37.1989C78.0233 36.0073 76.6712 35.1875 75.1664 34.8777V34.7442C75.1746 26.0964 71.9503 17.7587 66.1278 11.3713C65.8883 11.1154 65.5579 10.9641 65.2079 10.9502C64.8579 10.9362 64.5165 11.0607 64.2574 11.2968C63.9984 11.5328 63.8425 11.8614 63.8235 12.2116C63.8045 12.5618 63.9238 12.9054 64.1558 13.1682C69.5302 19.0648 72.5066 26.7613 72.4998 34.7442H69.8331C69.8331 26.9549 66.7427 19.4846 61.2416 13.9767C55.7406 8.46886 48.2795 5.37457 40.4999 5.37457C32.7202 5.37457 25.2592 8.46886 19.7581 13.9767C14.2571 19.4846 11.1666 26.9549 11.1666 34.7442H8.49998C8.50986 26.2498 11.8844 18.1061 17.8834 12.0997C23.8824 6.09326 32.016 2.7145 40.4999 2.70461C47.7173 2.67923 54.7267 5.12378 60.3665 9.63316C60.5037 9.74212 60.661 9.82295 60.8293 9.87105C60.9977 9.91915 61.1739 9.93357 61.3479 9.91349C61.5218 9.8934 61.6901 9.83921 61.8432 9.75401C61.9962 9.6688 62.131 9.55425 62.2398 9.41689C62.3486 9.27954 62.4294 9.12206 62.4774 8.95347C62.5254 8.78487 62.5398 8.60845 62.5198 8.43428C62.4997 8.26011 62.4456 8.0916 62.3605 7.93837C62.2754 7.78514 62.161 7.6502 62.0238 7.54124C55.9137 2.6553 48.3195 0.00675325 40.4999 0.0346418C31.3089 0.0448889 22.4972 3.70506 15.9982 10.2121C9.4992 16.7192 5.84355 25.5418 5.83332 34.7442V34.8777C4.32854 35.1875 2.97645 36.0073 2.00495 37.1989C1.03345 38.3904 0.501939 39.8809 0.5 41.4191V49.429C0.502117 51.1986 1.20517 52.8952 2.45495 54.1465C3.70473 55.3978 5.39919 56.1018 7.16665 56.1039H11.1666C11.1666 57.5201 11.7285 58.8783 12.7287 59.8798C13.7289 60.8812 15.0855 61.4438 16.5 61.4438H20.4999C20.8536 61.4438 21.1927 61.3032 21.4427 61.0528C21.6928 60.8024 21.8333 60.4629 21.8333 60.1088V54.7689C21.8333 54.4148 21.6928 54.0753 21.4427 53.8249C21.1927 53.5746 20.8536 53.4339 20.4999 53.4339C20.1463 53.4339 19.8072 53.5746 19.5571 53.8249C19.3071 54.0753 19.1666 54.4148 19.1666 54.7689V58.7738H16.5C15.7927 58.7738 15.1144 58.4925 14.6143 57.9918C14.1142 57.4911 13.8333 56.812 13.8333 56.1039V49.429C13.8333 49.0749 13.6928 48.7353 13.4428 48.485C13.1927 48.2346 12.8536 48.094 12.5 48.094C12.1463 48.094 11.8072 48.2346 11.5572 48.485C11.3071 48.7353 11.1666 49.0749 11.1666 49.429V53.4339H7.16665C6.10578 53.4339 5.08837 53.012 4.33823 52.2609C3.58808 51.5098 3.16666 50.4911 3.16666 49.429V41.4191C3.16666 40.3569 3.58808 39.3382 4.33823 38.5872C5.08837 37.8361 6.10578 37.4141 7.16665 37.4141H11.1666V44.089C11.1666 44.4431 11.3071 44.7827 11.5572 45.033C11.8072 45.2834 12.1463 45.424 12.5 45.424C12.8536 45.424 13.1927 45.2834 13.4428 45.033C13.6928 44.7827 13.8333 44.4431 13.8333 44.089V34.7442C13.8333 34.036 14.1142 33.3569 14.6143 32.8562C15.1144 32.3555 15.7927 32.0742 16.5 32.0742H19.1666V49.429C19.1666 49.783 19.3071 50.1226 19.5571 50.3729C19.8072 50.6233 20.1463 50.7639 20.4999 50.7639C20.8536 50.7639 21.1927 50.6233 21.4427 50.3729C21.6928 50.1226 21.8333 49.783 21.8333 49.429V30.7392C21.8333 30.3852 21.6928 30.0456 21.4427 29.7952C21.1927 29.5449 20.8536 29.4042 20.4999 29.4042H16.5C15.7385 29.407 14.9866 29.5745 14.296 29.8955C15.4235 23.7609 18.6624 18.2158 23.4497 14.2241C28.237 10.2325 34.27 8.04668 40.4999 8.04668C46.7298 8.04668 52.7628 10.2325 57.5501 14.2241C62.3374 18.2158 65.5763 23.7609 66.7038 29.8955C66.0131 29.5745 65.2613 29.407 64.4998 29.4042H60.4998C60.1462 29.4042 59.8071 29.5449 59.557 29.7952C59.307 30.0456 59.1665 30.3852 59.1665 30.7392V60.1088C59.1665 60.4629 59.307 60.8024 59.557 61.0528C59.8071 61.3032 60.1462 61.4438 60.4998 61.4438H64.4998C65.9143 61.4438 67.2708 60.8812 68.271 59.8798C69.2712 58.8783 69.8331 57.5201 69.8331 56.1039H71.1665V61.4438C71.1629 64.6292 69.8975 67.6832 67.6479 69.9357C65.3982 72.1881 62.348 73.4551 59.1665 73.4586H56.3105C56.0158 72.3157 55.3511 71.3027 54.4204 70.5781C53.4897 69.8535 52.3455 69.4581 51.1665 69.4537H45.8332C44.4187 69.4537 43.0622 70.0163 42.062 71.0177C41.0618 72.0191 40.4999 73.3774 40.4999 74.7936C40.4999 76.2099 41.0618 77.5681 42.062 78.5695C43.0622 79.5709 44.4187 80.1335 45.8332 80.1335H51.1665C52.3455 80.1291 53.4897 79.7337 54.4204 79.0091C55.3511 78.2845 56.0158 77.2715 56.3105 76.1286H59.1665C63.0549 76.124 66.7828 74.5754 69.5323 71.8224C72.2818 69.0695 73.8285 65.337 73.8331 61.4438V56.1039C75.6006 56.1018 77.295 55.3978 78.5448 54.1465C79.7946 52.8952 80.4976 51.1986 80.4998 49.429V46.759C80.4998 46.4049 80.3593 46.0654 80.1092 45.815C79.8592 45.5647 79.5201 45.424 79.1664 45.424ZM67.1665 56.1039C67.1665 56.812 66.8855 57.4911 66.3854 57.9918C65.8853 58.4925 65.207 58.7738 64.4998 58.7738H61.8331V32.0742H64.4998C65.207 32.0742 65.8853 32.3555 66.3854 32.8562C66.8855 33.3569 67.1665 34.036 67.1665 34.7442V56.1039ZM51.1665 77.4636H45.8332C45.126 77.4636 44.4477 77.1823 43.9476 76.6816C43.4475 76.1809 43.1665 75.5017 43.1665 74.7936C43.1665 74.0855 43.4475 73.4064 43.9476 72.9057C44.4477 72.405 45.126 72.1237 45.8332 72.1237H51.1665C51.8738 72.1237 52.552 72.405 53.0521 72.9057C53.5522 73.4064 53.8332 74.0855 53.8332 74.7936C53.8332 75.5017 53.5522 76.1809 53.0521 76.6816C52.552 77.1823 51.8738 77.4636 51.1665 77.4636Z" fill="#03BCFC"/>
<path d="M56.4999 45.4241C56.5045 42.1811 55.5202 39.014 53.6785 36.3462C53.5808 36.1982 53.4546 36.0712 53.3073 35.9725C53.16 35.8739 52.9945 35.8057 52.8205 35.7719C52.6465 35.738 52.4676 35.7392 52.2941 35.7755C52.1206 35.8117 51.9561 35.8822 51.8101 35.9828C51.6641 36.0834 51.5397 36.2122 51.444 36.3615C51.3483 36.5109 51.2833 36.6778 51.2528 36.8526C51.2223 37.0274 51.2269 37.2065 51.2664 37.3795C51.3058 37.5525 51.3793 37.7159 51.4826 37.8601C53.3705 40.6061 54.1654 43.9594 53.7113 47.262C53.2571 50.5646 51.5866 53.5781 49.0277 55.711C46.4687 57.844 43.206 58.9425 39.8799 58.7909C36.5537 58.6393 33.4041 57.2486 31.0493 54.8918C28.6944 52.5349 27.3042 49.382 27.1516 46.0518C26.9989 42.7215 28.0947 39.4543 30.224 36.8914C32.3533 34.3284 35.3624 32.6547 38.6607 32.1987C41.9591 31.7427 45.3086 32.5373 48.0519 34.4265C48.196 34.5275 48.3585 34.599 48.5303 34.6368C48.7021 34.6747 48.8796 34.6781 49.0527 34.647C49.2258 34.6158 49.391 34.5507 49.5388 34.4553C49.6867 34.3599 49.8142 34.2362 49.9141 34.0913C50.014 33.9464 50.0843 33.7831 50.1209 33.6109C50.1575 33.4387 50.1597 33.2609 50.1274 33.0878C50.0951 32.9147 50.0289 32.7498 49.9327 32.6024C49.8364 32.455 49.712 32.3282 49.5666 32.2291C46.6198 30.2 43.0791 29.2179 39.5096 29.4395C35.9401 29.6612 32.5477 31.0738 29.874 33.4519C27.2002 35.83 25.3993 39.0364 24.7587 42.5593C24.1182 46.0822 24.6749 49.7184 26.3401 52.8874C28.0052 56.0564 30.6828 58.5754 33.9452 60.0423C37.2077 61.5093 40.867 61.8396 44.3388 60.9804C47.8107 60.1213 50.895 58.1223 53.0993 55.3025C55.3036 52.4828 56.5009 49.0049 56.4999 45.4241Z" fill="#03BCFC"/>
</svg>

<svg width="81" height="81" fill="none" xmlns="http://www.w3.org/2000/svg"><path d="M37.7 54.502a1.332 1.332 0 001.866-.267l6-8.01a1.337 1.337 0 00-1.066-2.136h-5.334l4.4-5.874a1.337 1.337 0 00-1.255-2.123c-.35.05-.666.238-.878.521l-6 8.01a1.335 1.335 0 001.067 2.136h5.333l-4.4 5.874a1.335 1.335 0 00.267 1.869z" fill="#03BCFC"/><path d="M79.166 45.424a1.333 1.333 0 00-1.333 1.335v2.67a4.01 4.01 0 01-1.171 2.832 3.997 3.997 0 01-2.829 1.173h-4v-16.02h4a4 4 0 012.829 1.173 4.007 4.007 0 011.171 2.832 1.336 1.336 0 001.333 1.335A1.332 1.332 0 0080.5 41.42a6.692 6.692 0 00-1.505-4.22 6.677 6.677 0 00-3.829-2.321v-.134a34.646 34.646 0 00-9.038-23.373 1.332 1.332 0 00-2.304.84c-.02.35.1.694.332.957A31.99 31.99 0 0172.5 34.744h-2.667c0-7.79-3.09-15.26-8.591-20.767A29.315 29.315 0 0040.5 5.375c-7.78 0-15.24 3.094-20.742 8.602a29.388 29.388 0 00-8.591 20.767H8.5A32.097 32.097 0 0117.883 12.1 32.017 32.017 0 0140.5 2.705a31.634 31.634 0 0119.867 6.928 1.333 1.333 0 101.657-2.092A34.268 34.268 0 0040.5.035a34.684 34.684 0 00-24.502 10.177A34.77 34.77 0 005.833 34.744v.134a6.677 6.677 0 00-3.828 2.32A6.692 6.692 0 00.5 41.42v8.01a6.687 6.687 0 001.955 4.718 6.67 6.67 0 004.712 1.957h4c0 1.416.562 2.774 1.562 3.776a5.33 5.33 0 003.771 1.564h4a1.332 1.332 0 001.333-1.335v-5.34a1.336 1.336 0 00-1.333-1.335 1.333 1.333 0 00-1.333 1.335v4.005H16.5a2.665 2.665 0 01-2.667-2.67V49.43a1.336 1.336 0 00-1.333-1.335 1.332 1.332 0 00-1.333 1.335v4.005h-4a3.997 3.997 0 01-2.829-1.173 4.008 4.008 0 01-1.171-2.832v-8.01a3.997 3.997 0 014-4.005h4v6.675a1.336 1.336 0 001.333 1.335 1.332 1.332 0 001.333-1.335v-9.345a2.672 2.672 0 012.667-2.67h2.667V49.43a1.336 1.336 0 001.333 1.335 1.332 1.332 0 001.333-1.335V30.74a1.336 1.336 0 00-1.333-1.335h-4a5.275 5.275 0 00-2.204.491 26.684 26.684 0 019.154-15.67 26.624 26.624 0 0117.05-6.18 26.62 26.62 0 0117.05 6.177 26.684 26.684 0 019.154 15.671 5.275 5.275 0 00-2.204-.49h-4a1.333 1.333 0 00-1.334 1.334v29.37a1.336 1.336 0 001.334 1.335h4a5.33 5.33 0 003.771-1.564 5.343 5.343 0 001.562-3.776h1.334v5.34a12.037 12.037 0 01-3.52 8.492 12.006 12.006 0 01-8.48 3.523H56.31a5.34 5.34 0 00-5.144-4.005h-5.333a5.33 5.33 0 00-3.771 1.564 5.343 5.343 0 000 7.552 5.33 5.33 0 003.771 1.564h5.334a5.329 5.329 0 005.143-4.005h2.856a14.675 14.675 0 0010.366-4.307 14.711 14.711 0 004.301-10.378v-5.34a6.67 6.67 0 004.712-1.957 6.687 6.687 0 001.955-4.718v-2.67a1.336 1.336 0 00-1.334-1.335zm-12 10.68a2.672 2.672 0 01-2.666 2.67h-2.667v-26.7H64.5a2.665 2.665 0 012.666 2.67v21.36zm-16 21.36h-5.333a2.665 2.665 0 01-2.666-2.67 2.672 2.672 0 012.666-2.67h5.334a2.665 2.665 0 012.666 2.67 2.672 2.672 0 01-2.666 2.67z" fill="#03BCFC"/><path d="M56.5 45.424a15.94 15.94 0 00-2.822-9.078 1.336 1.336 0 00-1.384-.57 1.333 1.333 0 00-1.028 1.603c.04.174.113.337.217.481a13.38 13.38 0 01-2.455 17.851 13.338 13.338 0 01-17.979-.82 13.376 13.376 0 01-.825-18 13.337 13.337 0 0117.828-2.465 1.332 1.332 0 002.075-1.338 1.337 1.337 0 00-.56-.859 15.986 15.986 0 00-19.693 1.223 16.037 16.037 0 00-3.534 19.435 16.008 16.008 0 007.605 7.155 15.981 15.981 0 0010.394.938 15.997 15.997 0 008.76-5.677 16.032 16.032 0 003.4-9.879z" fill="#03BCFC"/></svg>
